X: 034
M: 12/8
L: 1/8
K: D
|:\
[2 Ddf edc dFD D2 |: g | Tf2d (f/g/a)f ge=c efg | Tf2d Adf afd faf |
gbg faf ge=c efg |[1 fdf gec dFD D2 :|[2 fag fge dAG FGE |]


